X:1
T:Baptize Us Anew
T:Baptize Us Anew
T:William Augustine Ogden
T:William Augustine Ogden, 1878
T:Public Domain Courtesy of the Cyber Hymnal™
C:William Augustine Ogden
Z:Public Domain
Z:Courtesy of the Cyber Hymnal™
%%score ( 1 2 ) ( 3 4 )
L:1/8
Q:1/4=138
M:3/4
K:G
V:1 treble 
V:2 treble 
V:3 bass 
V:4 bass 
V:1
 [DB]2 | [CA]2 [B,G]2 [B,G]2 | [B,G]4 [B,D]2 | [CE]2 [EG]2 [EG]2 | [EG]4 [CE]2 | %5
w: 1.~Bap-|tize us a-|new With|power from on|high, With|
w: 2.~Un-|wor- thy we|cry, Un-|ho- ly, un-|clean, O|
w: 3.~O|heav- en- ly|Dove, De-|scend from on|high! We|
w: 4.~O|list the glad|voice! From|Heav- en it|came: “Thou|
 [B,D]2 [DG]2 [DA]2 | [DB]2 [DB]2 [DG]2 | [DA]2 [DA]2 [DB]2 | [DA]4 ||"^Refrain" [DB]2 | %10
w: love, O re-|fresh us! Dear|Sav- ior, draw|nigh.|We|
w: wash us and|cleanse us From|sin’s guilt- y|stain.||
w: plead Thy rich|bless- ing; In|mer- cy draw|nigh.|(Last|
w: art My Be-|lov- èd, Well|pleas- èd I|am.”|We|
 [Ec]2 [Ec]2 [Ec]2 | [CE]2 [EG]2 [EA]2 | [DB]2 [DB]2 [DB]2 | [DB]4 (Bc) | [Dd]2 [DB]2 [=FG]2 | %15
w: hum- bly be-|seech Thee, Lord|Je- sus, we|pray, With *|love and the|
w: |||||
w: verse) * *|||||
w: praise thee, we|bless Thee, Dear|Lamb that was|slain, We *|laud and a-|
 [EG]2 [CE]2 [Ec]2 | [DB]2 [DG]2 [DA]2 | [DG]4 |] %18
w: Spir- it Bap-|tize us to-|day.|
w: |||
w: |||
w: dore Thee, A-|men and A-|men.|
V:2
 x2 | x6 | x6 | x6 | x6 | x6 | x6 | x6 | x4 || x2 | x6 | x6 | x6 | x4 D2 | x6 | x6 | x6 | x4 |] %18
V:3
 G,2 | [D,F,]2 G,2 G,2 | G,4 [G,,G,]2 | [C,G,]2 [C,C]2 [C,C]2 | [C,C]4 [C,G,]2 | %5
 [G,,G,]2 [B,,G,]2 [D,F,]2 | G,2 G,2 [B,,G,]2 | [D,F,]2 [D,F,]2 [D,G,]2 | [D,F,]4 || G,2 | %10
 [C,G,]2 [C,G,]2 [C,G,]2 | [C,G,]2 [C,G,]2 [C,G,]2 | [G,,G,]2 [G,,G,]2 [G,,G,]2 | [G,,G,]4 (G,A,) | %14
 [G,B,]2 G,2 [B,,G,]2 | [C,G,]2 [C,G,]2 [C,G,]2 | [D,G,]2 [D,B,]2 [D,C]2 | [G,,B,]4 |] %18
V:4
 G,2 | x2 G,2 G,2 | G,4 x2 | x6 | x6 | x6 | G,2 G,2 x2 | x6 | x4 || G,2 | x6 | x6 | x6 | x4 G,2 | %14
 x2 G,2 x2 | x6 | x6 | x4 |] %18

